assets/favicon.svg

<?xml version="1.0" encoding="UTF-8"?>
<svg version="1.1" viewBox="0 0 200 200" xmlns="http://www.w3.org/2000/svg">
<rect width="200" height="200" fill="#f5f5f5"/>
<g transform="matrix(6.0675 0 0 6.0675 20.485 143.14)" fill="#1e2021">
<path d="m8.87 0-2.51-5.02h-1.86v5.02h-3.43v-14.22h5.6q2.53 0 3.96 1.12 1.42 1.13 1.42 3.18 0 1.48-0.6 2.46t-1.88 1.58l2.97 5.73v0.15h-3.67zm-4.37-11.57v3.9h2.17q0.98 0 1.47-0.51t0.49-1.43-0.5-1.44q-0.49-0.52-1.46-0.52h-2.17zm15.39 11.57h-5.77v-14.22h5.11q2.74 0 4.17 1.01 1.43 1 1.43 2.92 0 1.1-0.5 1.88-0.51 0.78-1.5 1.15 1.12 0.3 1.71 1.1 0.6 0.8 0.6 1.95 0 2.09-1.33 3.14-1.32 1.05-3.92 1.07zm0.06-6.04h-2.4v3.4h2.24q0.93 0 1.43-0.42 0.5-0.43 0.5-1.2 0-1.78-1.77-1.78zm-2.4-5.53v3.28h1.79q1.12-0.01 1.6-0.41t0.48-1.18q0-0.9-0.52-1.3-0.52-0.39-1.67-0.39h-1.68z"/>
</g>
</svg>

<svg xmlns="http://www.w3.org/2000/svg" version="1.1" xmlns:xlink="http://www.w3.org/1999/xlink" viewBox="0 0 200 200"><rect width="200" height="200" fill="#f5f5f5"></rect><g fill="#1e2021" transform="matrix(6.067532467532468,0,0,6.067532467532468,20.484518770428437,143.1395315207444)"><path d="M8.87 0L6.36-5.02L4.50-5.02L4.50 0L1.07 0L1.07-14.22L6.67-14.22Q9.20-14.22 10.63-13.10Q12.05-11.97 12.05-9.92L12.05-9.92Q12.05-8.44 11.45-7.46Q10.85-6.48 9.57-5.88L9.57-5.88L12.54-0.15L12.54 0L8.87 0ZM4.50-11.57L4.50-7.67L6.67-7.67Q7.65-7.67 8.14-8.18Q8.63-8.69 8.63-9.61Q8.63-10.53 8.13-11.05Q7.64-11.57 6.67-11.57L6.67-11.57L4.50-11.57ZM19.89 0L14.12 0L14.12-14.22L19.23-14.22Q21.97-14.22 23.40-13.21Q24.83-12.21 24.83-10.29L24.83-10.29Q24.83-9.19 24.33-8.41Q23.82-7.63 22.83-7.26L22.83-7.26Q23.95-6.96 24.54-6.16Q25.14-5.36 25.14-4.21L25.14-4.21Q25.14-2.12 23.81-1.07Q22.49-0.02 19.89 0L19.89 0ZM19.95-6.04L17.55-6.04L17.55-2.64L19.79-2.64Q20.72-2.64 21.22-3.06Q21.72-3.49 21.72-4.26L21.72-4.26Q21.72-6.04 19.95-6.04L19.95-6.04ZM17.55-11.57L17.55-8.29L19.34-8.29Q20.46-8.30 20.94-8.70Q21.42-9.10 21.42-9.88L21.42-9.88Q21.42-10.78 20.90-11.18Q20.38-11.57 19.23-11.57L19.23-11.57L17.55-11.57Z"></path></g></svg>
